outputs/icons/editor/checklist_sharp.svg

<svg width="1200" height="1200" viewBox="0 0 1200 1200" fill="none" xmlns="http://www.w3.org/2000/svg"><g clip-path="url(#clip0_125_1481)"><path d="M1100 350.009H650V450.009H1100V350.009ZM1100 750.01H650V850.01H1100V750.01ZM277 550.01L100 373.009L170.5 302.509L276.5 408.509L488.5 196.509L559 267.009L277 550.01ZM277 950.01L100 773.01L170.5 702.51L276.5 808.51L488.5 596.51L559 667.01L277 950.01Z" fill="black"/></g><defs><clipPath id="clip0_125_1481"><path width="24" fill="white" d="M0 0H1200V1200H0V0z"/></clipPath></defs></svg>

<svg xmlns="http://www.w3.org/2000/svg" width="1200" height="1200" fill="none"><g clip-path="url(#a)"><path fill="#000" d="M1100 350.009H650v100h450zm0 400.001H650v100h450zm-823-200L100 373.009l70.5-70.5 106 106 212-212 70.5 70.5zm0 400-177-177 70.5-70.5 106 106 212-212 70.5 70.5z"/></g><defs><clipPath id="a"><path fill="#fff" d="M0 0h1200v1200H0z"/></clipPath></defs></svg>
